X:98204
T:The Royal Wedding
P:Our Highland Queen
C:J. Scott Skinner
R:Strathspey (8x32)
B:RSCDS D82-4
Z:Anselm Lingnau <anselm@strathspey.org>
M:C
L:1/8
K:D
(3A,B,C|"D"D>AF>A D>AF>A|(3[fAF]ed "A7"(3[cG]dB "D"A3 F/D/|\
        "A7"C>A G>A "D"F>A "Bm"D>A|"E7"(3FED (3CDB, "A7"A,2 A,(3A,/B,/C/|
        "D"D>AF>A D>AF>A|(3[fAF]ed "A7"(3[cG]dB "D"A3 G/F/|\
	"Em"(3GBe "A7"E>G "D"(3FAd "G"A>G|"D"(3F>ED "A7"(3C<ED "D"D2 D||
(3ABc|"D"d>f (3Afd (3afd (3AFD|(3A,DF (3AFd A2 A(3B/^c/^d/|\
      "Em"e>g (3Beg (3bge (3BGE|"A"(3CEG (3CEA "D"[F2D2] F (3A/B/c/|
      "D"d>f (3Afd (3afd (3AFD|(3A,DF (3AFd A2 A G/F/|\
      "Em"(3GBe "A7"E>G "D"(3FAd "G"A>G|"D"(3F>ED "A7"(3C<ED "D"D2 D||
